X:105
T:Woodycock. (p)1651.PLFD1.105
T:Green Man. (p)1651.PLFD1.105, The
M:6/4
L:1/4
Q:3/4=120
S:Playford, Dancing Master,1st Ed.,1651.
O:England;London
H:1651.
Z:Chris Partington.
K:F
|:d2 d f>ed|c2 A c2 c| d2 d f>ed|1cAA A3:|2cAAA2|
|:d|c2 B c>BA|BGG G2 G|AAA A>Bc|1dDD D2:|2dDD D3|]
